X:42
T: Jaj! Veress az ég lefelé
O: Gajcsána (Tekucs), 1929
Q: "Parlando" 1/4=76
L:1/4
K:F
d/d/d/c/ | d/d/d/(c/ c) z/z/ |
c/B/c/B/ | A/(G//F//)G/(F/F3/2) Hz/ | 
(c//A//c3/2) B/A/G/ | A/>G/D/<(D/ D) z | 
F/A/G/G/ | F/(_E//C//)D/(D/D3/2) z/ | 

